X:486
T: WENNS DIBBE ABER NUN E LOCH HAT
N: E1741A
O: Europa, Mitteleuropa, Deutschland, Hessen, Lahn - Gegend
R: Scherz -, Spiel - Lied
M: 3/4
L: 1/8
K: G
dd | eeddcc | c2B2
BB | B2A2cc | c2B2
d2 | e2ddcc | c2B2
BB | B2A2dd | G4

@@@ Tune index: 5170
